dist/img/svg/partners__slide__9.svg

<svg width="223" height="53" viewBox="0 0 223 53" fill="none" xmlns="http://www.w3.org/2000/svg">
<g opacity="0.7">
<path d="M18.1414 22.6597L19.5938 21.8215L21.0462 20.9833V20.971L19.7521 20.2235L18.1414 19.2939L16.3969 20.3011L15.2373 20.971V20.9833L16.6889 21.8215L18.1414 22.6597Z" fill="url(#paint0_linear_424_163)"/>
<path d="M18.1414 22.6597L16.6889 21.8216L15.2373 20.9834V22.6474V24.3238L15.5378 24.4974L16.2056 24.8823L18.1414 26.0001V22.659V22.6597Z" fill="url(#paint1_linear_424_163)"/>
<path d="M18.1414 22.659V26.0001L19.5938 25.1619L21.0462 24.3238V22.6474V20.9834L19.5938 21.8216L18.1414 22.659Z" fill="url(#paint2_linear_424_163)"/>
<path d="M0.837646 16.0127L6.42291 19.1863L12.2817 15.8045L18.1406 12.4234H18.1413L24.0002 15.8045L29.859 19.1863L35.3974 16.0403L35.4443 16.0127L26.7928 11.019L18.1406 6.02539L9.48988 11.019L0.837646 16.0127Z" fill="url(#paint3_linear_424_163)"/>
<path d="M35.445 16.0127L35.4212 16.0265L32.4511 17.7405L35.3974 16.0404L29.859 19.1864V19.2371V25.9501V32.713L24.0002 36.0956L21.0454 37.8004V32.5279V30.8992L19.5937 31.7373L18.1413 32.5755V32.577L18.1406 35.9873L18.1413 45.9731V45.9746L26.7928 40.9809L35.445 35.9873V26V16.0127Z" fill="url(#paint4_linear_424_163)"/>
<path d="M0.837646 16.0127V26V35.9873L9.48988 40.9809L18.1406 45.9746L18.1414 45.9731L18.1406 35.9873L18.1414 32.577L18.1406 32.5755L16.6889 31.7373L15.2365 30.8992V32.5279V37.8004L12.2817 36.0956L6.42291 32.713V25.9501V19.1864L0.837646 16.0127Z" fill="url(#paint5_linear_424_163)"/>
<path d="M59.7733 34.6474V33.2622L54.0121 17.344H49.8331L44.0965 33.2622V34.6474H47.8551L49.0916 30.9144H54.5808L55.7927 34.6474H59.7733ZM185.685 35.0223C189.963 35.0223 192.459 32.7236 192.459 28.7679V23.2311C192.459 19.2761 189.963 16.9767 185.685 16.9767C182.149 16.9767 179.059 18.6085 179.059 23.0329H182.94C182.94 21.6493 183.955 20.8825 185.562 20.8825C187.317 20.8825 188.207 21.6239 188.207 23.1074V24.2198H183.682V27.73H188.207V28.8916C188.207 30.3751 187.317 31.1165 185.562 31.1165C183.955 31.1165 182.94 30.3505 182.94 28.9661H179.059C179.059 31.0665 179.677 32.6 180.913 33.5633C182.149 34.5283 183.732 35.0223 185.685 35.0223ZM215.492 35.0169C217.396 35.0169 218.949 34.5167 220.165 33.5088C221.397 32.4893 222.02 30.9382 222.02 28.8624V28.615H217.767V28.837C217.767 30.3451 216.926 31.1118 215.221 31.1118C213.663 31.1118 212.872 30.4196 212.872 29.0606V22.9046C212.872 21.5455 213.662 20.8779 215.221 20.8779C216.704 20.8779 217.767 21.5455 217.767 23.1274V23.3748H222.02V23.1274C222.02 21.0508 221.396 19.5243 220.165 18.5048C218.949 17.4976 217.396 16.9729 215.492 16.9729C211.042 16.9729 208.619 19.2469 208.619 23.2011V28.7871C208.619 32.7429 211.042 35.0169 215.492 35.0169ZM198.39 34.6474V27.8483H199.998L203.856 34.6474H207.886V33.2622L203.41 25.7479L207.515 18.7529V17.344H203.757L199.924 24.1415H198.391V17.344H194.139V34.6474H198.39ZM164.406 34.6474H173.405H177.312V30.939H175.334V17.344H163.416V25.3522C163.416 28.2939 162.922 29.6775 162.056 30.9382H160.498V34.6466L164.406 34.6474ZM166.384 30.939C167.002 29.6283 167.323 27.75 167.323 25.353V21.0523H171.082V30.9398L166.384 30.939ZM158.753 34.6474V30.939H151.385V27.7254H157.567V24.2152H151.385V21.0516H158.703V17.344H147.132V34.6474H158.179H158.753ZM133.445 34.6474V24.8828L136.041 29.53H138.662L141.258 24.8828V34.6474H145.387V17.344H141.307L137.376 24.3389L133.445 17.344H129.316V34.6474H133.445ZM127.571 34.6474V33.2622L121.811 17.344H117.632L111.895 33.2622V34.6474H115.654L116.889 30.9144H122.379L123.59 34.6474H127.571ZM121.192 27.3551H118.076L119.66 22.6334L121.192 27.3551ZM98.5851 29.1344C97.769 29.1344 97.1265 28.8624 96.607 28.3438C96.1121 27.7991 95.8654 27.1822 95.8654 26.5146V24.7592C95.8654 24.0915 96.1121 23.4984 96.6316 22.9545C97.1511 22.4106 97.7943 22.1386 98.5851 22.1386H99.6233V29.1336L98.5851 29.1344ZM103.876 22.1394H104.915C105.706 22.1394 106.349 22.4114 106.868 22.9553C107.388 23.4992 107.635 24.0915 107.635 24.7599V26.5154C107.635 27.183 107.388 27.7999 106.868 28.3446C106.374 28.8639 105.731 29.1351 104.915 29.1351H103.876V22.1394ZM104.816 32.842C106.745 32.842 108.401 32.298 109.786 31.211C111.195 30.0978 111.887 28.5904 111.887 26.6375V24.6355C111.887 22.6826 111.196 21.1753 109.786 20.0874C108.401 18.975 106.745 18.431 104.816 18.431H103.876V16.9775H99.6233V18.431H98.6834C96.7553 18.431 95.0977 18.975 93.6891 20.0874C92.3043 21.1753 91.6119 22.6826 91.6119 24.6355V26.6375C91.6119 28.5904 92.3043 30.0978 93.6891 31.211C95.0977 32.298 96.7553 32.842 98.6834 32.842H99.6233V35.0223H103.876V32.842H104.816ZM85.2236 34.6474C88.3882 34.6474 90.2671 32.4962 90.2671 29.0353C90.2671 25.5996 88.3882 23.4739 85.2236 23.4739H81.4904V17.344H77.2377V34.6474H85.2236ZM81.4904 27.1822H84.4083C85.199 27.1822 85.966 27.7991 85.966 29.0852C85.966 30.3705 85.199 30.939 84.4083 30.939H81.4904V27.1822ZM61.5193 34.6335C65.6345 34.4253 67.5065 31.6673 67.5065 25.8954V21.0508H71.2397V34.6466H75.4925V17.344H63.5004V25.1302C63.5004 27.4043 63.3521 28.9123 63.0555 29.6537C62.7835 30.3951 62.0918 30.7654 61.0037 30.7654H60.6164L61.5193 34.6335ZM53.3935 27.3551H50.2781L51.8604 22.6334L53.3935 27.3551Z" fill="black"/>
</g>
<defs>
<linearGradient id="paint0_linear_424_163" x1="18.1413" y1="5.96128" x2="18.1413" y2="16.208" gradientUnits="userSpaceOnUse">
<stop/>
<stop offset="1" stop-color="#585858"/>
</linearGradient>
<linearGradient id="paint1_linear_424_163" x1="13.1061" y1="29.8091" x2="7.40918" y2="39.8616" gradientUnits="userSpaceOnUse">
<stop/>
<stop offset="1" stop-color="#595959"/>
</linearGradient>
<linearGradient id="paint2_linear_424_163" x1="23.3304" y1="29.8421" x2="29.0915" y2="39.6388" gradientUnits="userSpaceOnUse">
<stop/>
<stop offset="1" stop-color="#4E4E4E"/>
</linearGradient>
<linearGradient id="paint3_linear_424_163" x1="18.1413" y1="5.96124" x2="18.1413" y2="16.208" gradientUnits="userSpaceOnUse">
<stop/>
<stop offset="1" stop-color="#575757"/>
</linearGradient>
<linearGradient id="paint4_linear_424_163" x1="25.399" y1="28.6244" x2="31.1601" y2="38.421" gradientUnits="userSpaceOnUse">
<stop/>
<stop offset="1" stop-color="#5B5B5B"/>
</linearGradient>
<linearGradient id="paint5_linear_424_163" x1="8.04646" y1="33.5377" x2="5.17215" y2="38.6096" gradientUnits="userSpaceOnUse">
<stop/>
<stop offset="1" stop-color="#555555"/>
</linearGradient>
</defs>
</svg>

<svg width="223" height="53" viewBox="0 0 223 53" fill="none" xmlns="http://www.w3.org/2000/svg"><g opacity=".7"><path d="M18.141 22.66l1.453-.838 1.452-.839v-.012l-1.294-.747-1.61-.93-1.745 1.007-1.16.67v.012l1.452.838 1.452.839z" fill="url(#paint0_linear_424_163)"/><path d="M18.141 22.66l-1.452-.838-1.452-.839v3.341l.3.173.669.385L18.14 26v-3.34z" fill="url(#paint1_linear_424_163)"/><path d="M18.141 22.659V26l1.453-.838 1.452-.838v-3.341l-1.452.839-1.453.837z" fill="url(#paint2_linear_424_163)"/><path d="M.838 16.013l5.585 3.173 5.859-3.381 5.859-3.382 5.86 3.382 5.858 3.381 5.538-3.146.047-.027-8.651-4.994-8.652-4.994L9.49 11.02.838 16.013z" fill="url(#paint3_linear_424_163)"/><path d="M35.445 16.013l-.024.013-2.97 1.715 2.946-1.7-5.538 3.145v13.527L24 36.096 21.045 37.8v-6.9l-1.451.838-1.453.838v13.4l8.652-4.994 8.652-4.994V16.013z" fill="url(#paint4_linear_424_163)"/><path d="M.838 16.013v19.974l8.652 4.994 8.65 4.994.001-.002V32.575l-1.452-.838-1.453-.838V37.8l-2.954-1.704-5.86-3.383V19.186L.839 16.013z" fill="url(#paint5_linear_424_163)"/><path d="M59.773 34.647v-1.385l-5.76-15.918h-4.18l-5.736 15.918v1.385h3.758l1.237-3.733h5.489l1.212 3.733h3.98zm125.912.375c4.278 0 6.774-2.298 6.774-6.254V23.23c0-3.955-2.496-6.254-6.774-6.254-3.536 0-6.626 1.631-6.626 6.056h3.881c0-1.384 1.015-2.15 2.622-2.15 1.755 0 2.645.74 2.645 2.224v1.113h-4.525v3.51h4.525v1.162c0 1.483-.89 2.224-2.645 2.224-1.607 0-2.622-.765-2.622-2.15h-3.881c0 2.1.618 3.634 1.854 4.597 1.236.965 2.819 1.46 4.772 1.46zm29.807-.005c1.904 0 3.457-.5 4.673-1.508 1.232-1.02 1.855-2.57 1.855-4.647v-.247h-4.253v.222c0 1.508-.841 2.275-2.546 2.275-1.558 0-2.349-.692-2.349-2.051v-6.156c0-1.36.79-2.027 2.349-2.027 1.483 0 2.546.668 2.546 2.25v.247h4.253v-.248c0-2.076-.624-3.603-1.855-4.622-1.216-1.007-2.769-1.532-4.673-1.532-4.45 0-6.873 2.274-6.873 6.228v5.586c0 3.956 2.423 6.23 6.873 6.23zm-17.102-.37v-6.799h1.608l3.858 6.8h4.03v-1.386l-4.476-7.514 4.105-6.995v-1.409h-3.758l-3.833 6.797h-1.533v-6.797h-4.252v17.303h4.251zm-33.984 0h12.906V30.94h-1.978V17.344h-11.918v8.008c0 2.942-.494 4.325-1.36 5.586h-1.558v3.709h3.908zm1.978-3.708c.618-1.31.939-3.189.939-5.586v-4.3h3.759v9.887l-4.698-.001zm-7.631 3.708V30.94h-7.368v-3.214h6.182v-3.51h-6.182v-3.163h7.318v-3.708h-11.571v17.303h11.621zm-25.308 0v-9.764l2.596 4.647h2.621l2.596-4.647v9.764h4.129V17.344h-4.08l-3.931 6.995-3.931-6.995h-4.129v17.303h4.129zm-5.874 0v-1.385l-5.76-15.918h-4.179l-5.737 15.918v1.385h3.759l1.235-3.733h5.49l1.211 3.733h3.981zm-6.379-7.292h-3.116l1.584-4.722 1.532 4.722zm-22.607 1.78c-.816 0-1.459-.273-1.978-.791-.495-.545-.742-1.162-.742-1.83V24.76c0-.668.247-1.26.767-1.805.52-.543 1.162-.815 1.953-.815h1.038v6.995h-1.038zm5.291-6.996h1.039c.791 0 1.434.272 1.953.816.52.544.767 1.137.767 1.805v1.755c0 .668-.247 1.285-.767 1.83-.494.519-1.137.79-1.953.79h-1.039V22.14zm.94 10.703c1.929 0 3.585-.544 4.97-1.631 1.409-1.113 2.101-2.62 2.101-4.573v-2.003c0-1.952-.691-3.46-2.101-4.548-1.385-1.112-3.041-1.656-4.97-1.656h-.94v-1.454h-4.253v1.454h-.94c-1.928 0-3.585.544-4.994 1.656-1.385 1.088-2.077 2.596-2.077 4.549v2.002c0 1.952.692 3.46 2.077 4.573 1.409 1.087 3.066 1.631 4.994 1.631h.94v2.18h4.253v-2.18h.94zm-19.592 1.805c3.164 0 5.043-2.15 5.043-5.612 0-3.435-1.879-5.561-5.043-5.561H81.49v-6.13h-4.252v17.303h7.986zm-3.734-7.465h2.918c.791 0 1.558.617 1.558 1.903 0 1.285-.767 1.854-1.558 1.854H81.49v-3.757zm-19.97 7.451c4.114-.208 5.986-2.966 5.986-8.738v-4.844h3.734v13.596h4.253V17.344H63.5v7.786c0 2.274-.148 3.782-.444 4.524-.273.741-.964 1.111-2.052 1.111h-.388l.903 3.868zm-8.127-7.278h-3.115l1.582-4.722 1.534 4.722z" fill="#000"/></g><defs><linearGradient id="paint0_linear_424_163" x1="18.141" y1="5.961" x2="18.141" y2="16.208" gradientUnits="userSpaceOnUse"><stop/><stop offset="1" stop-color="#585858"/></linearGradient><linearGradient id="paint1_linear_424_163" x1="13.106" y1="29.809" x2="7.409" y2="39.862" gradientUnits="userSpaceOnUse"><stop/><stop offset="1" stop-color="#595959"/></linearGradient><linearGradient id="paint2_linear_424_163" x1="23.33" y1="29.842" x2="29.091" y2="39.639" gradientUnits="userSpaceOnUse"><stop/><stop offset="1" stop-color="#4E4E4E"/></linearGradient><linearGradient id="paint3_linear_424_163" x1="18.141" y1="5.961" x2="18.141" y2="16.208" gradientUnits="userSpaceOnUse"><stop/><stop offset="1" stop-color="#575757"/></linearGradient><linearGradient id="paint4_linear_424_163" x1="25.399" y1="28.624" x2="31.16" y2="38.421" gradientUnits="userSpaceOnUse"><stop/><stop offset="1" stop-color="#5B5B5B"/></linearGradient><linearGradient id="paint5_linear_424_163" x1="8.046" y1="33.538" x2="5.172" y2="38.61" gradientUnits="userSpaceOnUse"><stop/><stop offset="1" stop-color="#555"/></linearGradient></defs></svg>
